X: 1817
T: Söyle Ey Mutrıb-ı Nâzende Edâ
C: Rahmi Bey
O: Turkey
F: http://compmusic.upf.edu/node/140
N: kurdilihicazkar--sarki--agiraksak--soyle_ey--rahmi_bey
N: makam= kurdilihicazkar
N: form= sarki
N: usul= agiraksak = 9/4
M: 9/4
L: 1/16
K: C _B _e _A 
Q: 1/4=72
%%MIDI tuningsystem comma53
z8-z2f2 _1/4e2f2 g8 g3=a b3a a2g2  | \
w:  Söy *  le  ey  mut  | 
g2=ag f2_2/4ed e4 a2gf f3_1/4e e3d d8 d2f2  | 
w:  *  *  *  *  *  *  *  rıb_ ı  *  nâ *  *  *  zen  | 
_1/4e3d c8 _1/4B2c2 d2e2 f2g2 a3g f2e2 d2c2  | \
w:  *  *  *  de  e dâ  *  *  *  nâ  | 
z2a2 g2f2 _1/4e2f2 g2{b}ag g8 g2a2 g2f2 e2f2  | 
w:  zen *  *  *  *  de  *  e *  dâ   SAZ  | 
g8 z4 a2{b}ag g4 z4 a3g f2g2 a2c'2  | \
w:  *  Ne  *  i *  miş  aşk_  | 
b2a2 g2f2 e4 d2e2 g3f e2f2 d4 e8  | 
w:  *  *  *  *  *  u  mu hab *  *  *  bet   | 
z2g2 f2e2 d2c2 {d}c2B2 A3G F4 Fedc c8  | \
w:  sev  | 
z2d2 B2A2 G2A2 c2{d}cB B3A A2{B}AG G6f2 _1/4e2f2  | 
w:  dâ  *  *  *  *  *  *  *  *  sev *  *  *  *  *  dâ   SAZ  | 
g8 z4 a2{b}ag g4 z4 a3g f2g2 a2c'2  | \
w:  *  Ne  *  i *  miş  aşk_  | 
b2a2 g2f2 e4 d2e2 g3f e2f2 d4 e8  | 
w:  *  *  *  *  *  u  mu hab *  *  *  bet   | 
z2g2 f2e2 d2c2 {d}c2B2 A3G F4 Fedc c8  | \
w:  sev  | 
z2d2 B2A2 G2A2 c2{d}cB B3A A2{B}AG G6c2 _1/4B2c2  | 
w:  dâ  *  *  *  *  *  *  *  *  sev *  *  *  *  *  dâ   SAZ  | 
d8 z2c4d2 d4 c2B2 e8 {f}e2d2  | d2c2 {d}c2B2 z4 e2dc B2A2 A2G2 G8 z4  | 
w:  *  Ba ri  şerh_ *  *  et   |  *  *  *  *  *  ne  o *  lur   | 
z2_7/8a2 g2f2 _1/4e2d2 e2f2 g2a2 _1/4b2c'd' b2a2 g2f2 e2d2  | \
w:  sen   | 
z2a2 g2f2 _1/4e2f2 g2{b}ag g8 g2a2 g2f2 e2f2  | 
w:  sen  *  *  *  *  de  *  ba *  na   SAZ  | 
g8 z4 a2{b}ag g4 z4 a3g f2g2 a2c'2  | \
w:  *  Ne  *  i *  miş  aşk_  | 
b2a2 g2f2 e4 d2e2 g3f e2f2 d4 e8  | 
w:  *  *  *  *  *  u  mu hab *  *  *  bet   | 
z2g2 f2e2 d2c2 {d}c2B2 A3G F4 Fedc c8  | \
w:  sev  | 
z2d2 B2A2 G2A2 c2{d}cB B3A A2{B}AG G6f2 _1/4e2f2  | 
w:  dâ  *  *  *  *  *  *  *  *  sev *  *  *  *  *  dâ   SAZ  | 
g8 z4 a2{b}ag g4 z4 a3g f2g2 a2c'2  | \
w:  *  Ne  *  i *  miş  aşk_  | 
b2a2 g2f2 e4 d2e2 g3f e2f2 d4 e8  | 
w:  *  *  *  *  *  u  mu hab *  *  *  bet   | 
z2g2 f2e2 d2c2 {d}c2B2 A3G F4 Fedc c8  | \
w:  sev  | 
z2d2 B2A2 G2A2 c2cB B3A A2AG G6z6  | 
w:  da  KARAR *  *  *  *  *  *  sev *  *  *  *  dâ    | 
|


